Numix-Circle/48x48/apps/android-sdk.svg

<?xml version="1.0" encoding="UTF-8" standalone="no"?>
<svg
   xmlns:dc="http://purl.org/dc/elements/1.1/"
   xmlns:cc="http://creativecommons.org/ns#"
   xmlns:rdf="http://www.w3.org/1999/02/22-rdf-syntax-ns#"
   xmlns:svg="http://www.w3.org/2000/svg"
   xmlns="http://www.w3.org/2000/svg"
   xmlns:xlink="http://www.w3.org/1999/xlink"
   xmlns:sodipodi="http://sodipodi.sourceforge.net/DTD/sodipodi-0.dtd"
   xmlns:inkscape="http://www.inkscape.org/namespaces/inkscape"
   viewBox="0 0 48 48"
   id="svg2"
   version="1.1"
   inkscape:version="0.91 r13725"
   sodipodi:docname="android-sdk.svg">
  <metadata
     id="metadata67">
    <rdf:RDF>
      <cc:Work
         rdf:about="">
        <dc:format>image/svg+xml</dc:format>
        <dc:type
           rdf:resource="http://purl.org/dc/dcmitype/StillImage" />
      </cc:Work>
    </rdf:RDF>
  </metadata>
  <sodipodi:namedview
     pagecolor="#ffffff"
     bordercolor="#666666"
     borderopacity="1"
     objecttolerance="10"
     gridtolerance="10"
     guidetolerance="10"
     inkscape:pageopacity="0"
     inkscape:pageshadow="2"
     inkscape:window-width="750"
     inkscape:window-height="982"
     id="namedview65"
     showgrid="true"
     inkscape:zoom="6.9532167"
     inkscape:cx="29.843597"
     inkscape:cy="22.851921"
     inkscape:window-x="520"
     inkscape:window-y="32"
     inkscape:window-maximized="0"
     inkscape:current-layer="svg2">
    <inkscape:grid
       type="xygrid"
       id="grid4216" />
  </sodipodi:namedview>
  <defs
     id="defs4">
    <inkscape:perspective
       sodipodi:type="inkscape:persp3d"
       inkscape:vp_x="0 : 24 : 1"
       inkscape:vp_y="0 : 1000 : 0"
       inkscape:vp_z="48 : 24 : 1"
       inkscape:persp3d-origin="24 : 16 : 1"
       id="perspective4218" />
    <linearGradient
       inkscape:collect="always"
       id="linearGradient4206">
      <stop
         style="stop-color:#6f8291;stop-opacity:1;"
         offset="0"
         id="stop4208" />
      <stop
         style="stop-color:#7a8c9a;stop-opacity:1"
         offset="1"
         id="stop4210" />
    </linearGradient>
    <linearGradient
       id="linearGradient3764"
       x1="1"
       x2="47"
       gradientUnits="userSpaceOnUse"
       gradientTransform="matrix(0,-1,1,0,-1.5e-6,47.999998)">
      <stop
         style="stop-color:#7ca339;stop-opacity:1"
         id="stop7" />
      <stop
         offset="1"
         style="stop-color:#87b23e;stop-opacity:1"
         id="stop9" />
    </linearGradient>
    
    <linearGradient
       inkscape:collect="always"
       xlink:href="#linearGradient4206"
       id="linearGradient4212"
       x1="1"
       y1="24"
       x2="47"
       y2="24"
       gradientUnits="userSpaceOnUse" />
    <linearGradient
       inkscape:collect="always"
       xlink:href="#linearGradient4206"
       id="linearGradient4214"
       gradientUnits="userSpaceOnUse"
       x1="1"
       y1="24"
       x2="47"
       y2="24" />
  </defs>
  <g
     id="g21">
    <path
       d="m 36.31 5 c 5.859 4.062 9.688 10.831 9.688 18.5 c 0 12.426 -10.07 22.5 -22.5 22.5 c -7.669 0 -14.438 -3.828 -18.5 -9.688 c 1.037 1.822 2.306 3.499 3.781 4.969 c 4.085 3.712 9.514 5.969 15.469 5.969 c 12.703 0 23 -10.298 23 -23 c 0 -5.954 -2.256 -11.384 -5.969 -15.469 c -1.469 -1.475 -3.147 -2.744 -4.969 -3.781 z m 4.969 3.781 c 3.854 4.113 6.219 9.637 6.219 15.719 c 0 12.703 -10.297 23 -23 23 c -6.081 0 -11.606 -2.364 -15.719 -6.219 c 4.16 4.144 9.883 6.719 16.219 6.719 c 12.703 0 23 -10.298 23 -23 c 0 -6.335 -2.575 -12.06 -6.719 -16.219 z"
       style="opacity:0.05"
       id="path23" />
    <path
       d="m 41.28 8.781 c 3.712 4.085 5.969 9.514 5.969 15.469 c 0 12.703 -10.297 23 -23 23 c -5.954 0 -11.384 -2.256 -15.469 -5.969 c 4.113 3.854 9.637 6.219 15.719 6.219 c 12.703 0 23 -10.298 23 -23 c 0 -6.081 -2.364 -11.606 -6.219 -15.719 z"
       style="opacity:0.1"
       id="path25" />
    <path
       d="m 31.25 2.375 c 8.615 3.154 14.75 11.417 14.75 21.13 c 0 12.426 -10.07 22.5 -22.5 22.5 c -9.708 0 -17.971 -6.135 -21.12 -14.75 a 23 23 0 0 0 44.875 -7 a 23 23 0 0 0 -16 -21.875 z"
       style="opacity:0.2"
       id="path27" />
  </g>
  <g
     id="g29"
     style="fill:url(#linearGradient4212);fill-opacity:1"
     transform="matrix(0,-1,1,0,0,48)">
    <path
       d="M 24,1 C 36.703,1 47,11.297 47,24 47,36.703 36.703,47 24,47 11.297,47 1,36.703 1,24 1,11.297 11.297,1 24,1 Z"
       style="fill:url(#linearGradient4214);fill-opacity:1"
       id="path31"
       inkscape:connector-curvature="0" />
  </g>
  <path
     style="fill:#000000;fill-opacity:1;fill-rule:nonzero;stroke:none;opacity:0.1"
     d="M 20.597656 12.003906 C 20.540031 11.990156 20.480187 11.999656 20.429688 12.035156 C 20.327687 12.101156 20.308719 12.246469 20.386719 12.355469 L 21.679688 14.199219 C 19.624688 15.137219 18.180094 16.922 17.996094 19 L 31.996094 19 C 31.812094 16.922 30.371406 15.133219 28.316406 14.199219 L 28.320312 14.199219 L 29.613281 12.355469 C 29.691281 12.246469 29.668313 12.105156 29.570312 12.035156 C 29.468312 11.965156 29.324094 12.000375 29.246094 12.109375 L 27.90625 14.023438 C 27.01925 13.679437 26.035 13.488281 25 13.488281 C 23.965 13.488281 22.97975 13.679437 22.09375 14.023438 L 20.75 12.109375 C 20.711 12.054875 20.655281 12.017656 20.597656 12.003906 z M 22.046875 15.580078 C 22.476875 15.580078 22.818359 15.921844 22.818359 16.339844 C 22.818359 16.757844 22.471875 17.101562 22.046875 17.101562 C 21.616875 17.101562 21.269531 16.761844 21.269531 16.339844 C 21.269531 15.921844 21.617875 15.580078 22.046875 15.580078 z M 28.046875 15.580078 C 28.472875 15.580078 28.818359 15.921844 28.818359 16.339844 C 28.818359 16.757844 28.471875 17.101562 28.046875 17.101562 C 27.616875 17.101562 27.269531 16.761844 27.269531 16.339844 C 27.269531 15.921844 27.617875 15.580078 28.046875 15.580078 z M 15.5625 20 C 14.6995 20 13.996094 20.758406 13.996094 21.691406 L 13.996094 28.308594 C 13.996094 29.242594 14.6995 30.003906 15.5625 30.003906 C 16.4255 30.003906 16.996094 29.241594 16.996094 28.308594 L 16.996094 21.691406 C 16.996094 20.757406 16.4265 20 15.5625 20 z M 18 20 L 18 31.59375 C 18 32.28175 18.32 33 19 33 L 21 33 L 21 36.375 C 21 37.273 21.3155 38 22.1875 38 C 23.0545 38 24.001953 37.273 24.001953 36.375 L 24.001953 33 L 26.001953 33 L 26.001953 36.375 C 26.001953 37.273 26.942453 38 27.814453 38 C 28.681453 38 29.005859 37.273 29.005859 36.375 L 29.005859 33 L 31.005859 33 C 31.681859 33 32.005859 32.28075 32.005859 31.59375 L 32.005859 20 L 18 20 z M 34.433594 20 C 33.570594 20 33 20.758406 33 21.691406 L 33 28.308594 C 33 29.242594 33.569594 30.003906 34.433594 30.003906 C 35.300594 30.003906 35.996094 29.241594 35.996094 28.308594 L 35.996094 21.691406 C 35.996094 20.757406 35.297594 20 34.433594 20 z M 23 22 L 27 22 L 27 27 L 29 27 L 25 31 L 21 27 L 23 27 L 23 22 z "
     id="path43" />
  <path
     style="fill:#f9f9f9;fill-opacity:1;fill-rule:nonzero;stroke:none"
     d="M 19.597656 11.003906 C 19.540031 10.990156 19.480187 10.999656 19.429688 11.035156 C 19.327687 11.101156 19.308719 11.246469 19.386719 11.355469 L 20.679688 13.199219 C 18.624688 14.137219 17.180094 15.922 16.996094 18 L 30.996094 18 C 30.812094 15.922 29.371406 14.133219 27.316406 13.199219 L 27.320312 13.199219 L 28.613281 11.355469 C 28.691281 11.246469 28.668313 11.105156 28.570312 11.035156 C 28.468312 10.965156 28.324094 11.000375 28.246094 11.109375 L 26.90625 13.023438 C 26.01925 12.679437 25.035 12.488281 24 12.488281 C 22.965 12.488281 21.97975 12.679437 21.09375 13.023438 L 19.75 11.109375 C 19.711 11.054875 19.655281 11.017656 19.597656 11.003906 z M 21.046875 14.580078 C 21.476875 14.580078 21.818359 14.921844 21.818359 15.339844 C 21.818359 15.757844 21.471875 16.101563 21.046875 16.101562 C 20.616875 16.101562 20.269531 15.761844 20.269531 15.339844 C 20.269531 14.921844 20.617875 14.580078 21.046875 14.580078 z M 27.046875 14.580078 C 27.472875 14.580078 27.818359 14.921844 27.818359 15.339844 C 27.818359 15.757844 27.471875 16.101563 27.046875 16.101562 C 26.616875 16.101562 26.269531 15.761844 26.269531 15.339844 C 26.269531 14.921844 26.617875 14.580078 27.046875 14.580078 z M 14.5625 19 C 13.6995 19 12.996094 19.758406 12.996094 20.691406 L 12.996094 27.308594 C 12.996094 28.242594 13.6995 29.003906 14.5625 29.003906 C 15.4255 29.003906 15.996094 28.241594 15.996094 27.308594 L 15.996094 20.691406 C 15.996094 19.757406 15.4265 19 14.5625 19 z M 17 19 L 17 30.59375 C 17 31.28175 17.32 32 18 32 L 20 32 L 20 35.375 C 20 36.273 20.3155 37 21.1875 37 C 22.0545 37 23.001953 36.273 23.001953 35.375 L 23.001953 32 L 25.001953 32 L 25.001953 35.375 C 25.001953 36.273 25.942453 37 26.814453 37 C 27.681453 37 28.005859 36.273 28.005859 35.375 L 28.005859 32 L 30.005859 32 C 30.681859 32 31.005859 31.28075 31.005859 30.59375 L 31.005859 19 L 17 19 z M 33.433594 19 C 32.570594 19 32 19.758406 32 20.691406 L 32 27.308594 C 32 28.242594 32.569594 29.003906 33.433594 29.003906 C 34.300594 29.003906 34.996094 28.241594 34.996094 27.308594 L 34.996094 20.691406 C 34.996094 19.757406 34.297594 19 33.433594 19 z M 22 21 L 26 21 L 26 26 L 28 26 L 24 30 L 20 26 L 22 26 L 22 21 z "
     id="path55" />
  <g
     id="g61">
    <path
       d="m 40.03 7.531 c 3.712 4.084 5.969 9.514 5.969 15.469 0 12.703 -10.297 23 -23 23 c -5.954 0 -11.384 -2.256 -15.469 -5.969 4.178 4.291 10.01 6.969 16.469 6.969 c 12.703 0 23 -10.298 23 -23 0 -6.462 -2.677 -12.291 -6.969 -16.469 z"
       style="opacity:0.1"
       id="path63" />
  </g>
</svg>

<svg xmlns="http://www.w3.org/2000/svg" viewBox="0 0 48 48">
 <defs>
  <linearGradient id="linearGradient4212" x1="1" x2="47" gradientUnits="userSpaceOnUse">
   <stop style="stop-color:#6f8291;stop-opacity:1"/>
   <stop offset="1" style="stop-color:#7a8c9a;stop-opacity:1"/>
  </linearGradient>
 </defs>
 <g>
  <path d="m 36.31 5 c 5.859 4.062 9.688 10.831 9.688 18.5 c 0 12.426 -10.07 22.5 -22.5 22.5 c -7.669 0 -14.438 -3.828 -18.5 -9.688 c 1.037 1.822 2.306 3.499 3.781 4.969 c 4.085 3.712 9.514 5.969 15.469 5.969 c 12.703 0 23 -10.298 23 -23 c 0 -5.954 -2.256 -11.384 -5.969 -15.469 c -1.469 -1.475 -3.147 -2.744 -4.969 -3.781 z m 4.969 3.781 c 3.854 4.113 6.219 9.637 6.219 15.719 c 0 12.703 -10.297 23 -23 23 c -6.081 0 -11.606 -2.364 -15.719 -6.219 c 4.16 4.144 9.883 6.719 16.219 6.719 c 12.703 0 23 -10.298 23 -23 c 0 -6.335 -2.575 -12.06 -6.719 -16.219 z" style="opacity:0.05"/>
  <path d="m 41.28 8.781 c 3.712 4.085 5.969 9.514 5.969 15.469 c 0 12.703 -10.297 23 -23 23 c -5.954 0 -11.384 -2.256 -15.469 -5.969 c 4.113 3.854 9.637 6.219 15.719 6.219 c 12.703 0 23 -10.298 23 -23 c 0 -6.081 -2.364 -11.606 -6.219 -15.719 z" style="opacity:0.1"/>
  <path d="m 31.25 2.375 c 8.615 3.154 14.75 11.417 14.75 21.13 c 0 12.426 -10.07 22.5 -22.5 22.5 c -9.708 0 -17.971 -6.135 -21.12 -14.75 a 23 23 0 0 0 44.875 -7 a 23 23 0 0 0 -16 -21.875 z" style="opacity:0.2"/>
 </g>
 <g transform="matrix(0,-1,1,0,0,48)" style="fill:url(#linearGradient4212);fill-opacity:1">
  <path d="M 24,1 C 36.703,1 47,11.297 47,24 47,36.703 36.703,47 24,47 11.297,47 1,36.703 1,24 1,11.297 11.297,1 24,1 Z"/>
 </g>
 <path d="m 20.598 12 c -0.058 -0.014 -0.117 -0.004 -0.168 0.031 c -0.102 0.066 -0.121 0.211 -0.043 0.32 l 1.293 1.844 c -2.055 0.938 -3.5 2.723 -3.684 4.801 l 14 0 c -0.184 -2.078 -1.625 -3.867 -3.68 -4.801 l 0.004 0 l 1.293 -1.844 c 0.078 -0.109 0.055 -0.25 -0.043 -0.32 c -0.102 -0.07 -0.246 -0.035 -0.324 0.074 l -1.34 1.914 c -0.887 -0.344 -1.871 -0.535 -2.906 -0.535 c -1.035 0 -2.02 0.191 -2.906 0.535 l -1.344 -1.914 c -0.039 -0.055 -0.095 -0.092 -0.152 -0.105 z m 1.449 3.576 c 0.43 0 0.771 0.342 0.771 0.76 c 0 0.418 -0.346 0.762 -0.771 0.762 c -0.43 0 -0.777 -0.34 -0.777 -0.762 c 0 -0.418 0.348 -0.76 0.777 -0.76 z m 6 0 c 0.426 0 0.771 0.342 0.771 0.76 c 0 0.418 -0.346 0.762 -0.771 0.762 c -0.43 0 -0.777 -0.34 -0.777 -0.762 c 0 -0.418 0.348 -0.76 0.777 -0.76 z m -12.484 4.42 c -0.863 0 -1.566 0.758 -1.566 1.691 l 0 6.617 c 0 0.934 0.703 1.695 1.566 1.695 c 0.863 0 1.434 -0.762 1.434 -1.695 l 0 -6.617 c 0 -0.934 -0.57 -1.691 -1.434 -1.691 z m 2.438 0 l 0 11.594 c 0 0.688 0.32 1.406 1 1.406 l 2 0 l 0 3.375 c 0 0.898 0.316 1.625 1.188 1.625 c 0.867 0 1.814 -0.727 1.814 -1.625 l 0 -3.375 l 2 0 l 0 3.375 c 0 0.898 0.941 1.625 1.813 1.625 c 0.867 0 1.191 -0.727 1.191 -1.625 l 0 -3.375 l 2 0 c 0.676 0 1 -0.719 1 -1.406 l 0 -11.594 l -14.01 0 z m 16.434 0 c -0.863 0 -1.434 0.758 -1.434 1.691 l 0 6.617 c 0 0.934 0.57 1.695 1.434 1.695 c 0.867 0 1.563 -0.762 1.563 -1.695 l 0 -6.617 c 0 -0.934 -0.699 -1.691 -1.563 -1.691 z m -11.434 2 l 4 0 l 0 5 l 2 0 l -4 4 l -4 -4 l 2 0 l 0 -5 z" style="fill:#000;opacity:0.1;fill-opacity:1;stroke:none;fill-rule:nonzero"/>
 <path d="m 19.598 11 c -0.058 -0.014 -0.117 -0.004 -0.168 0.031 c -0.102 0.066 -0.121 0.211 -0.043 0.32 l 1.293 1.844 c -2.055 0.938 -3.5 2.723 -3.684 4.801 l 14 0 c -0.184 -2.078 -1.625 -3.867 -3.68 -4.801 l 0.004 0 l 1.293 -1.844 c 0.078 -0.109 0.055 -0.25 -0.043 -0.32 c -0.102 -0.07 -0.246 -0.035 -0.324 0.074 l -1.34 1.914 c -0.887 -0.344 -1.871 -0.535 -2.906 -0.535 c -1.035 0 -2.02 0.191 -2.906 0.535 l -1.344 -1.914 c -0.039 -0.055 -0.095 -0.092 -0.152 -0.105 z m 1.449 3.576 c 0.43 0 0.771 0.342 0.771 0.76 c 0 0.418 -0.346 0.762 -0.771 0.762 c -0.43 0 -0.777 -0.34 -0.777 -0.762 c 0 -0.418 0.348 -0.76 0.777 -0.76 z m 6 0 c 0.426 0 0.771 0.342 0.771 0.76 c 0 0.418 -0.346 0.762 -0.771 0.762 c -0.43 0 -0.777 -0.34 -0.777 -0.762 c 0 -0.418 0.348 -0.76 0.777 -0.76 z m -12.484 4.42 c -0.863 0 -1.566 0.758 -1.566 1.691 l 0 6.617 c 0 0.934 0.703 1.695 1.566 1.695 c 0.863 0 1.434 -0.762 1.434 -1.695 l 0 -6.617 c 0 -0.934 -0.57 -1.691 -1.434 -1.691 z m 2.438 0 l 0 11.594 c 0 0.688 0.32 1.406 1 1.406 l 2 0 l 0 3.375 c 0 0.898 0.316 1.625 1.188 1.625 c 0.867 0 1.814 -0.727 1.814 -1.625 l 0 -3.375 l 2 0 l 0 3.375 c 0 0.898 0.941 1.625 1.813 1.625 c 0.867 0 1.191 -0.727 1.191 -1.625 l 0 -3.375 l 2 0 c 0.676 0 1 -0.719 1 -1.406 l 0 -11.594 l -14.01 0 z m 16.434 0 c -0.863 0 -1.434 0.758 -1.434 1.691 l 0 6.617 c 0 0.934 0.57 1.695 1.434 1.695 c 0.867 0 1.563 -0.762 1.563 -1.695 l 0 -6.617 c 0 -0.934 -0.699 -1.691 -1.563 -1.691 z m -11.434 2 l 4 0 l 0 5 l 2 0 l -4 4 l -4 -4 l 2 0 l 0 -5 z" style="fill:#f9f9f9;fill-opacity:1;stroke:none;fill-rule:nonzero"/>
 <g>
  <path d="m 40.03 7.531 c 3.712 4.084 5.969 9.514 5.969 15.469 0 12.703 -10.297 23 -23 23 c -5.954 0 -11.384 -2.256 -15.469 -5.969 4.178 4.291 10.01 6.969 16.469 6.969 c 12.703 0 23 -10.298 23 -23 0 -6.462 -2.677 -12.291 -6.969 -16.469 z" style="opacity:0.1"/>
 </g>
</svg>
